resources/haticons/SVG/dropbox.svg

<!-- Generated by IcoMoon.io -->
<svg version="1.1" xmlns="http://www.w3.org/2000/svg" width="24" height="24" viewBox="0 0 24 24">
<title>dropbox</title>
<path d="M17.25 0.75l-5.25 4.5 6.75 4.5 5.25-4.5z"></path>
<path d="M12 5.25l-5.25-4.5-6.75 4.5 5.25 4.5z"></path>
<path d="M18.75 9.75l5.25 4.5-6.75 3.75-5.25-4.5z"></path>
<path d="M12 13.5l-6.75-3.75-5.25 4.5 6.75 3.75z"></path>
<path d="M17.066 19.818l-5.066-4.342-5.066 4.342-3.184-1.769v2.201l8.25 3.75 8.25-3.75v-2.201z"></path>
</svg>

<svg xmlns="http://www.w3.org/2000/svg" width="24" height="24"><path d="M17.25.75L12 5.25l6.75 4.5L24 5.25zM12 5.25L6.75.75 0 5.25l5.25 4.5zm6.75 4.5l5.25 4.5L17.25 18 12 13.5zM12 13.5L5.25 9.75 0 14.25 6.75 18z"/><path d="M17.066 19.818L12 15.476l-5.066 4.342-3.184-1.769v2.201L12 24l8.25-3.75v-2.201z"/></svg>
